images/sponsors/seegno.svg

<?xml version="1.0" encoding="UTF-8"?>
<svg width="170px" height="39px" viewBox="0 0 170 39" version="1.1" xmlns="http://www.w3.org/2000/svg" xmlns:xlink="http://www.w3.org/1999/xlink">
    <!-- Generator: Sketch 42 (36781) - http://www.bohemiancoding.com/sketch -->
    <title>seegno</title>
    <desc>Created with Sketch.</desc>
    <defs></defs>
    <g id="Type-+-Color" stroke="none" stroke-width="1" fill="none" fill-rule="evenodd">
        <g id="1st-version-mirror-desktop" transform="translate(-229.000000, -5538.000000)" fill-rule="nonzero" fill="#08E5BC">
            <g id="seegno" transform="translate(229.000000, 5538.000000)">
                <polyline id="Shape" points="59.596875 0.609375 56.428125 6.703125 68.7375 6.703125 68.7375 0.609375"></polyline>
                <polyline id="Shape" points="53.38125 12.796875 50.334375 19.0125 68.615625 19.0125 68.615625 12.796875"></polyline>
                <polyline id="Shape" points="47.2875 25.10625 44.240625 31.321875 68.7375 31.321875 68.7375 25.10625"></polyline>
                <path d="M99.815625,11.2125 L95.428125,15.478125 C93.721875,13.40625 91.1625,12.309375 87.99375,12.309375 C82.3875,12.309375 78.24375,16.453125 78.24375,22.425 C78.24375,28.640625 82.509375,32.6625 87.871875,32.6625 C92.86875,32.6625 95.79375,30.225 96.646875,25.8375 L88.846875,25.8375 L88.846875,20.71875 L102.984375,20.71875 C103.10625,21.328125 103.10625,21.815625 103.10625,22.425 C103.10625,31.6875 96.76875,38.26875 88.115625,38.26875 C79.584375,38.26875 72.028125,32.296875 72.028125,22.303125 C72.028125,13.040625 78.853125,6.3375 88.2375,6.3375 C93.1125,6.58125 97.134375,8.2875 99.815625,11.2125" id="Shape"></path>
                <polyline id="Shape" points="128.7 37.903125 112.246875 17.30625 112.246875 37.903125 106.03125 37.903125 106.03125 7.06875 111.759375 7.06875 128.334375 27.665625 128.334375 7.06875 134.55 7.06875 134.55 37.903125"></polyline>
                <path d="M144.178125,22.425 C144.178125,28.396875 148.321875,32.540625 153.928125,32.540625 C159.65625,32.540625 163.678125,28.396875 163.678125,22.425 C163.678125,16.453125 159.65625,12.309375 153.928125,12.309375 C148.2,12.43125 144.178125,16.453125 144.178125,22.425 M170.015625,22.425 C170.015625,31.6875 163.3125,38.390625 153.80625,38.390625 C144.3,38.390625 137.71875,31.6875 137.71875,22.425 C137.71875,13.284375 144.421875,6.459375 153.80625,6.459375 C163.3125,6.58125 170.015625,13.284375 170.015625,22.425" id="Shape"></path>
                <path d="M16.0875,19.74375 L14.38125,19.5 C12.553125,19.25625 11.090625,18.890625 9.99375,18.403125 C9.2625,18.0375 8.775,17.671875 8.409375,17.184375 C8.165625,16.81875 8.04375,16.453125 8.04375,15.965625 C8.04375,14.38125 9.140625,13.284375 10.96875,12.675 C11.7,12.43125 12.553125,12.309375 13.40625,12.309375 L13.89375,12.309375 C17.30625,12.309375 20.23125,13.40625 22.66875,14.86875 L25.59375,9.871875 C22.546875,8.04375 19.865625,7.06875 16.696875,6.825 C15.965625,6.703125 15.234375,6.703125 14.503125,6.703125 L13.771875,6.703125 C7.190625,6.703125 1.4625,9.99375 1.4625,16.453125 C1.4625,19.621875 2.803125,21.815625 4.875,23.15625 C5.3625,23.521875 5.971875,23.765625 6.58125,24.13125 C7.8,24.61875 9.2625,25.10625 10.725,25.35 L12.675,25.715625 C16.940625,26.446875 19.25625,27.178125 19.25625,29.371875 C19.25625,31.6875 16.696875,33.028125 13.1625,33.028125 C9.140625,33.028125 5.60625,31.44375 3.4125,29.7375 L0.4875,34.85625 C3.778125,37.415625 8.653125,38.75625 13.1625,38.75625 C19.74375,38.75625 25.715625,35.465625 25.715625,28.7625 C25.959375,23.034375 21.571875,20.596875 16.0875,19.74375" id="Shape"></path>
                <polyline id="Shape" points="34.85625 24.61875 47.53125 24.61875 50.334375 19.0125 34.85625 19.0125 34.85625 12.43125 53.625 12.43125 56.428125 6.703125 28.7625 6.703125 28.7625 37.5375 41.071875 37.5375 44.240625 31.321875 34.85625 31.321875"></polyline>
            </g>
        </g>
    </g>
</svg>

<svg width="170" height="39" viewBox="0 0 170 39" xmlns="http://www.w3.org/2000/svg"><title>seegno</title><g fill-rule="nonzero" fill="#08E5BC"><path d="M59.597.61l-3.169 6.093h12.31V.61M53.381 12.797l-3.047 6.215h18.282v-6.215M47.288 25.106l-3.047 6.216h24.496v-6.216M99.816 11.213l-4.388 4.265c-1.706-2.072-4.266-3.169-7.434-3.169-5.606 0-9.75 4.144-9.75 10.116 0 6.216 4.265 10.238 9.628 10.238 4.997 0 7.922-2.438 8.775-6.825h-7.8v-5.12h14.137c.122.61.122 1.098.122 1.707 0 9.262-6.337 15.844-14.99 15.844-8.532 0-16.088-5.972-16.088-15.966 0-9.262 6.825-15.966 16.21-15.966 4.874.244 8.896 1.95 11.578 4.876M128.7 37.903l-16.453-20.597v20.597h-6.216V7.07h5.728l16.575 20.597V7.069h6.216v30.834M144.178 22.425c0 5.972 4.144 10.116 9.75 10.116 5.728 0 9.75-4.144 9.75-10.116 0-5.972-4.022-10.116-9.75-10.116-5.728.122-9.75 4.144-9.75 10.116m25.838 0c0 9.262-6.703 15.966-16.21 15.966-9.506 0-16.087-6.703-16.087-15.966 0-9.14 6.703-15.966 16.087-15.966 9.506.122 16.21 6.825 16.21 15.966M16.087 19.744l-1.706-.244c-1.828-.244-3.29-.61-4.387-1.097-.732-.365-1.219-.731-1.585-1.219a2.059 2.059 0 0 1-.365-1.218c0-1.585 1.097-2.682 2.925-3.291.731-.244 1.584-.366 2.437-.366h.488c3.412 0 6.337 1.097 8.775 2.56l2.925-4.997c-3.047-1.828-5.728-2.803-8.897-3.047-.731-.122-1.463-.122-2.194-.122h-.731c-6.581 0-12.31 3.29-12.31 9.75 0 3.169 1.341 5.363 3.413 6.703.487.366 1.097.61 1.706.975 1.219.488 2.681.975 4.144 1.219l1.95.366c4.266.73 6.581 1.462 6.581 3.656 0 2.316-2.56 3.656-6.094 3.656-4.021 0-7.556-1.584-9.75-3.29L.487 34.855c3.291 2.56 8.166 3.9 12.676 3.9 6.58 0 12.553-3.29 12.553-9.994.243-5.728-4.144-8.165-9.629-9.018"/><path d="M34.856 24.619h12.675l2.803-5.607H34.856v-6.58h18.769l2.803-5.729H28.763v30.835h12.309l3.169-6.216h-9.385"/></g></svg>
